public/assets/emoji-right.svg

<svg width="309" height="239" viewBox="0 0 309 239" fill="none" xmlns="http://www.w3.org/2000/svg">
<path d="M134.743 75.7053C122.675 92.3252 114.792 111.127 118.296 132.003C121.505 151.116 135.991 167.178 152.705 175.74C196.364 198.105 251.977 171.834 271.65 129.39C281.261 108.655 283.074 86.8375 273.234 65.6826C264.103 46.0533 242.892 31.9994 221.623 29.1498C209.753 27.5595 197.948 27.4368 186.527 31.4111C172.032 36.4547 159.031 45.3113 147.695 55.5481C138.807 63.5751 130.736 73.6653 124.857 84.0964C118.921 94.6294 115.614 104.579 112.926 116.209" stroke="black" stroke-width="7" stroke-linecap="round"/>
<path d="M196.207 183.158C178.27 179.544 159.051 179.877 140.785 179.639C110.944 179.252 81.14 177.541 51.3386 176.035" stroke="black" stroke-width="7" stroke-linecap="round"/>
<path d="M50.1282 176.655C53.2717 185.082 46.5118 157.697 39.7746 151.738C36.2164 148.591 34.1247 148.334 32.4429 153.248C30.6193 158.576 29.0076 164.146 28.0358 169.701" stroke="black" stroke-width="7" stroke-linecap="round"/>
<path d="M27.5591 172.426C28.982 168.764 8.16249 163.777 4.93349 172.088C0.953387 182.332 15.9298 185.37 22.4509 185.574" stroke="black" stroke-width="7" stroke-linecap="round"/>
<path d="M23.9294 188.36C25.915 189.432 19.2692 187.962 17.1747 188.801C12.1538 190.813 7.99816 192.302 8.56778 198.404C9.49888 208.379 22.5402 211.894 30.3683 207.741" stroke="black" stroke-width="7" stroke-linecap="round"/>
<path d="M30.4245 210.582C31.6145 211.431 30.9158 214.029 31.0496 215.271C31.3171 217.752 32.5334 222.009 34.4922 223.774C40.7864 229.447 47.9568 225.934 51.4974 219.374" stroke="black" stroke-width="7" stroke-linecap="round"/>
<path d="M108.169 58.1402C102.41 65.2505 94.6306 66.6263 89.9314 57.765C87.0208 52.2766 101.177 48.7828 103.863 47.769" stroke="black" stroke-width="7" stroke-linecap="round"/>
<path d="M103.594 48.7834C93.2605 46.0416 100.063 31.0981 106.433 27.3994C111.289 24.58 114.875 32.7429 116.76 35.9905" stroke="black" stroke-width="7" stroke-linecap="round"/>
<path d="M119.327 34.5001C121.66 29.1433 127.118 21.9992 133.694 22.2972C138.356 22.5085 137.624 27.9486 136.053 30.795" stroke="black" stroke-width="7" stroke-linecap="round"/>
<path d="M135.246 33.8379C139.432 31.4075 142.44 28.3637 147.844 29.0977C151.533 29.5987 151.732 33.4393 151.372 36.488" stroke="black" stroke-width="7" stroke-linecap="round"/>
<path d="M149.281 40.2762C154.489 40.3328 159.597 40.2989 164.662 41.6428" stroke="black" stroke-width="7" stroke-linecap="round"/>
<path d="M149.259 80.769C151.157 87.4422 153.217 94.4854 153.983 101.384" stroke="black" stroke-width="7" stroke-linecap="round"/>
<path d="M186.239 77C186.056 83.2499 186.265 87.9333 187.682 94.3069" stroke="black" stroke-width="7" stroke-linecap="round"/>
<path d="M151.524 124.697C138.766 124.697 177.955 125.99 189.032 132.319C194.272 135.313 169.775 157.582 168.947 161.721" stroke="black" stroke-width="7" stroke-linecap="round"/>
</svg>

<svg width="309" height="239" viewBox="0 0 309 239" fill="none" xmlns="http://www.w3.org/2000/svg">
  <path d="M134.743 75.705c-12.068 16.62-19.951 35.422-16.447 56.298 3.209 19.113 17.695 35.175 34.409 43.737 43.659 22.365 99.272-3.906 118.945-46.35 9.611-20.735 11.424-42.552 1.584-63.707-9.131-19.63-30.342-33.684-51.611-36.533-11.87-1.59-23.675-1.713-35.096 2.261-14.495 5.044-27.496 13.9-38.832 24.137-8.888 8.027-16.959 18.117-22.838 28.548-5.936 10.533-9.243 20.483-11.931 32.113" stroke="#000" stroke-width="7" stroke-linecap="round"/>
  <path d="M196.207 183.158c-17.937-3.614-37.156-3.281-55.422-3.519-29.841-.387-59.645-2.098-89.446-3.604m-1.211.62c3.144 8.427-3.616-18.958-10.353-24.917-3.559-3.147-5.65-3.404-7.332 1.51-1.824 5.328-3.435 10.898-4.407 16.453m-.476 2.725c1.422-3.662-19.398-8.649-22.627-.338-3.98 10.244 10.997 13.282 17.518 13.486m1.479 2.786c1.985 1.072-4.66-.398-6.755.441-5.021 2.012-9.177 3.501-8.607 9.603.93 9.975 13.972 13.49 21.8 9.337m.057 2.841c1.19.849.49 3.447.625 4.689.267 2.481 1.483 6.738 3.442 8.503 6.294 5.673 13.465 2.16 17.005-4.4M108.169 58.14c-5.759 7.11-13.538 8.486-18.238-.375-2.91-5.488 11.246-8.982 13.932-9.996" stroke="#000" stroke-width="7" stroke-linecap="round"/>
  <path d="M103.594 48.783c-10.333-2.741-3.531-17.685 2.839-21.384 4.856-2.819 8.442 5.344 10.327 8.591m2.567-1.49c2.333-5.357 7.791-12.5 14.367-12.203 4.662.212 3.93 5.652 2.359 8.498m-.807 3.043c4.186-2.43 7.194-5.474 12.598-4.74 3.689.5 3.888 4.341 3.528 7.39m-2.091 3.788c5.208.057 10.316.023 15.381 1.367m-15.403 39.126c1.898 6.673 3.958 13.716 4.724 20.615M186.239 77c-.183 6.25.026 10.933 1.443 17.307m-36.158 30.39c-12.758 0 26.431 1.293 37.508 7.622 5.24 2.994-19.257 25.263-20.085 29.402" stroke="#000" stroke-width="7" stroke-linecap="round"/>
</svg>
